X:23
T:Kiss Me Sweetly. JBi.23
M:C|
L:1/8
Q:1/4=120
S:James Biggins MS, Leeds, 1779.
R:.Strathspey
O:England
A:Yorkshire
N:Sounds like it should be possible to put a nother name to this tune,
N:but it sounds like Moneymusk and Tullochgorum And most of the others
N:too..CGP..
Z:vmp.Nick Barber & Chris Partington
K:C
|EGcG AGcG|EGcG dDDF|EGcG EGga|gede c/c/c2||!
g|a/g/f/e/ cg egcg|a/g/f/e/ cg eddg|\
(a/g/f/e/) cg egde|cAGE C/C/CC2|]

